app/dist/common/images/medion-ag.svg

<svg height="18" viewBox="0 0 18 18" width="18" xmlns="http://www.w3.org/2000/svg"><path d="m0 0h18v18h-18z" fill="#f0f3fa"/><path d="m3 12v-4.5l3 4.5zm4-6h-3.5l4 6h3l1.5-2.5v2.5h3v-6h-4l-2 3z" fill="#002273"/></svg>

<!-- by TradingView --><svg width="18" height="18" viewBox="0 0 18 18" xmlns="http://www.w3.org/2000/svg"><path fill="#F0F3FA" d="M0 0h18v18H0z"/><path d="M3 12V7.5L6 12H3ZM7 6H3.5l4 6h3L12 9.5V12h3V6h-4L9 9 7 6Z" fill="#002273"/></svg>
